X:1
T:Title
%%score { ( 1 3 ) | ( 2 4 ) }
L:1/8
Q:1/4=100
M:6/8
K:G
V:1 treble nm="Grand Piano"
V:3 treble 
V:2 bass 
V:4 bass 
V:1
 [DB]2 [B,D] [_B,^C]2 [=B,D] | [CE]3 [B,D]3 | [B,G]2 [B,F] [B,G]2 [B,E] | [CF]6 | c2 D ^C2 D | %5
w: Thoro~Harris * * *|||||
 E3 D3 | A2 ^G A2 _B | B6 | [DB]2 [B,D] [_B,^C]2 [=B,D] | [CE]3 [B,D]3 | B2 d c2 B | E6 | %12
w: |||||||
 [EG]2 [EG] [EF]2 [EG] | [Gd]3 B3 | A2 E F2 D | [B,G]6 | [Bd]2 [Ac] [GB]2 [Ac] | [Bd]3 [GB]3 | %18
w: ||||||
 [ce]2 [Bd] [Ac]2 [^GB] | [Ac]6 | [Ac]2 [GB] [FA]2 [GB] | [Ac]3 [FA]3 | [Fdf]2 [Fce] [Bd]2 [Ac] | %23
w: |||||
 B6 | .B2 B .B2 B | B3 B3 | B2 B [=FA]2 [FG] | [Ee]6 | [Ge]2 [Ge] [Gf]2 [Ge] | [Gd]3 [GB]3 | %30
w: |||||||
 [GB]2 [Gd] [Ec]2 [FA][Q:1/4=98][Q:1/4=97][Q:1/4=95][Q:1/4=94][Q:1/4=92][Q:1/4=91][Q:1/4=89][Q:1/4=88][Q:1/4=86][Q:1/4=84][Q:1/4=83][Q:1/4=81][Q:1/4=80][Q:1/4=78][Q:1/4=77] | %31
w: |
 [B,DG]6 |] %32
w: |
V:2
 [G,,G,]2 [G,,F,] [G,,E,]2 [G,,D,] | [G,,G,]3 [G,,G,]3 | [G,,D,]2 [G,,D,] [G,,D,]2 [G,,D,] | %3
 [A,,D,]6 | [D,F,D]2 [D,F,A,] [D,F,_B,]2 [D,F,B,] | [D,A,C]3 [D,F,C]3 | %6
 [D,F,C]2 [D,=F,B,] [D,^F,C]2 [D,F,^C] | [G,D]6 | [G,,G,]2 [G,,F,] [G,,E,]2 [G,,D,] | %9
 [G,,G,]3 [G,,G,]3 | [E,^G,D]2 [E,G,D] [E,G,D]2 [E,G,D] | [A,C]6 | %12
 [C,A,]2 [C,A,] [^C,_B,]2 [C,B,] | [D,B,]3 [D,G,D]3 | [E,G,^C]2 [E,G,C] [D,A,=C]2 [D,F,C] | %15
 [G,,G,]6 | [G,B,D]2 [G,A,D] [G,D]2 [G,A,D] | [G,B,D]3 [G,D]3 | [D,D]2 [D,D] [D,D]2 [D,D] | %19
 [D,D]6 | [D,D]2 [D,D] [D,D]2 [D,D] | [D,D]3 [D,D]3 | [D,D]2 [D,D] [E,D]2 [F,D] | [G,DG]6 | %24
 .[G,B,D]2 [G,B,D] .[G,B,D]2 [G,B,D] | [F,A,^D]3 [F,A,D]3 | [E,G,E]2 [E,G,E] [D,B,]2 [D,B,] | %27
 C3 z3 | [^C,_B,]2 [C,B,] [C,B,]2 [C,B,] | [D,B,]3 [D,D]3 | [D,D]2 [D,B,] [D,A,]2 [D,C] | %31
 [G,,G,]6 |] %32
V:3
 x6 | x6 | x6 | x6 | x6 | x6 | x6 | x6 | x6 | x6 | x6 | x6 | x6 | x6 | x6 | x6 | x6 | x6 | x6 | %19
 x6 | x6 | x6 | x6 | x6 | x6 | x6 | x6 | z3 B,3 | x6 | x6 | x6 | x6 |] %32
V:4
 x6 | x6 | x6 | x6 | x6 | x6 | x6 | x6 | x6 | x6 | x6 | x6 | x6 | x6 | x6 | x6 | x6 | x6 | x6 | %19
 x6 | x6 | x6 | x6 | x6 | x6 | x6 | x6 | C,6 | x6 | x6 | x6 | x6 |] %32

